X: 8532
T: Creignish Hills
R: reel
M: 4/4
K: Adorian
egfd e2 dB|deBd ABGB|egfd e2 dB|gedB A/A/A AB|
(e/f/g) fd e2 dB|deBd ABGA|BABd edea|gedB A/A/A||
ea|eAed BAAB|d2 ed BGGa|eAed BAAB|dGdB A/A/A AB|
eAed BAAB|d2 ed BGGB|egfd e2 dB|gedB A/A/A AB||

